packages/foundations/assets/icons/functional/images/buildings/house_16_filled.svg

<svg width="16" height="16" viewBox="0 0 16 16" fill="none" xmlns="http://www.w3.org/2000/svg">
<g clip-path="url(#clip0_2202_1191)">
<path fill-rule="evenodd" clip-rule="evenodd" d="M5.62695 14.4H4.00395C3.61395 14.4 3.19995 14.057 3.19995 13.588V7.93801L2.97395 8.18801C2.90122 8.26326 2.81381 8.32278 2.71714 8.36286C2.62046 8.40294 2.51658 8.42273 2.41194 8.42101C1.94294 8.42101 1.59995 8.06201 1.59995 7.59401C1.59995 7.42201 1.66294 7.25101 1.78694 7.12601L6.48595 2.41201C6.82895 2.06801 7.20395 1.60001 7.99995 1.60001C8.79595 1.60001 9.16995 2.06901 9.51395 2.41201L14.1659 7.04801C14.2415 7.12366 14.3012 7.2137 14.3414 7.31281C14.3816 7.41191 14.4015 7.51807 14.3999 7.62501C14.3999 8.07801 14.0249 8.42101 13.5729 8.42101C13.3849 8.42101 13.2099 8.37801 13.0889 8.25001L12.7999 7.93801V13.588C12.7999 14.025 12.3859 14.4 11.9959 14.4H10.4039C9.98195 14.4 9.59995 14.119 9.59995 13.698V9.60001H6.39995V13.604C6.39995 14.025 6.12695 14.4 5.62695 14.4Z" fill="#1A1C1F"/>
</g>
<defs>
<clipPath id="clip0_2202_1191">
<rect width="16" height="16" fill="white"/>
</clipPath>
</defs>
</svg>

<svg xmlns="http://www.w3.org/2000/svg" width="16" height="16" fill="none"><g clip-path="url(#a)"><path fill="#1A1C1F" fill-rule="evenodd" d="M5.627 14.4H4.004c-.39 0-.804-.343-.804-.812v-5.65l-.226.25a.76.76 0 0 1-.562.233c-.47 0-.812-.359-.812-.827 0-.172.063-.343.187-.468l4.699-4.714C6.829 2.068 7.204 1.6 8 1.6s1.17.469 1.514.812l4.652 4.636a.8.8 0 0 1 .234.577c0 .453-.375.796-.827.796-.188 0-.363-.043-.484-.171l-.29-.312v5.65c0 .437-.413.812-.803.812h-1.592c-.422 0-.804-.281-.804-.702V9.6H6.4v4.004c0 .421-.273.796-.773.796" clip-rule="evenodd"/></g><defs><clipPath id="a"><path fill="#fff" d="M0 0h16v16H0z"/></clipPath></defs></svg>
